dist/svgs/unicons/line/basketball-hoop.svg

<svg xmlns="http://www.w3.org/2000/svg" data-name="Layer 1" viewBox="0 0 24 24"><path d="M18 10H6a1 1 0 000 2h1v9a1 1 0 002 0v-1h2v1a1 1 0 002 0v-1h2v1a1 1 0 002 0v-9h1a1 1 0 000-2zm-7 8H9v-2h2zm0-4H9v-2h2zm4 4h-2v-2h2zm0-4h-2v-2h2zm5-12H4a3 3 0 00-3 3v8a3 3 0 003 3 1 1 0 000-2 1 1 0 01-1-1V5a1 1 0 011-1h16a1 1 0 011 1v8a1 1 0 01-1 1 1 1 0 000 2 3 3 0 003-3V5a3 3 0 00-3-3zm-6 6a1 1 0 000-2h-4a1 1 0 000 2z"/></svg>

<svg xmlns="http://www.w3.org/2000/svg" data-name="Layer 1" viewBox="0 0 24 24"><path d="M18,10H6a1,1,0,0,0,0,2H7v9a1,1,0,0,0,2,0V20h2v1a1,1,0,0,0,2,0V20h2v1a1,1,0,0,0,2,0V12h1a1,1,0,0,0,0-2Zm-7,8H9V16h2Zm0-4H9V12h2Zm4,4H13V16h2Zm0-4H13V12h2ZM20,2H4A3,3,0,0,0,1,5v8a3,3,0,0,0,3,3,1,1,0,0,0,0-2,1,1,0,0,1-1-1V5A1,1,0,0,1,4,4H20a1,1,0,0,1,1,1v8a1,1,0,0,1-1,1,1,1,0,0,0,0,2,3,3,0,0,0,3-3V5A3,3,0,0,0,20,2ZM14,8a1,1,0,0,0,0-2H10a1,1,0,0,0,0,2Z"/></svg>
